X:1
T:Title
%%score { ( 1 3 ) | ( 2 4 ) }
L:1/8
Q:1/4=78
M:6/8
K:Eb
V:1 treble nm="Grand Piano"
V:3 treble 
V:2 bass 
V:4 bass 
V:1
 GGG BBB | [CA][CE][=B,F] [_B,G]3 | [EG]>[DF]E EDE | [DF]3 B2- [AB] | [Ge][Ge][Ge] ddd | %5
w: Mrs.~C.~H.~Morris * * * * *|||||
 cde [EGB]3 | B>=AG BAG | [_Gd]3 [B,=G]3 | [GB]-[EG-B-][EGB] [Ac]-[EAc][EGB] | %9
w: ||||
 [GB]<A[D=EG] [DFA]3 | [Ac]>cc [Ac]d[DAc] | [Ac]-[DA-c-][DAc] [GB]3 | [Ge][Ge][Ge] ddd | %13
w: ||||
 cde [GB]>[Ge][Ge] | [Ge]>[GB][EG]- [EG]/[DB]<[DA]D/ | E6 |] %16
w: |||
V:2
 [E,B,E][E,B,E][E,B,E] [E,G,_D][E,G,D][E,G,D] | [A,,A,][A,,A,][A,,A,] [E,G,]3 | %2
 [C,C]>[C,G,][C,G,C] [B,,G,][B,,F,B,][B,,G,B,] | [B,,B,]3 [B,,B,]3 | %4
 [E,B,][E,B,][E,B,][K:treble] [G,=B,F][G,B,F][G,B,F] | [A,E][A,B,E][K:bass][A,CE] E,3 | %6
 B,>=A,G, B,A,G, | =A,2 C G,3 | E,E,E, E,E,E, | z/ F3/2B,, B,,3 | %10
 z z/[K:treble] A/A[K:bass] z BB,, | B,,B,,B,, [E,E]3 | %12
 [E,B,][E,B,][E,B,][K:treble] [G,=B,F][G,B,F][G,B,F] | %13
 [A,E][A,B,E][K:bass][A,CE] [E,E]>[E,B,][E,B,] | %14
 [B,,B,]>[B,,B,][B,,B,]- [B,,B,]/[B,,F,]<[B,,F,][B,,A,B,]/ | [E,G,B,]6 |] %16
V:3
 x6 | x6 | x6 | z3 .D3 | x6 | x6 | x6 | x6 | .E3 .E3 | .D3 z3 | x6 | .D3 z3 | x6 | x6 | x6 | x6 |] %16
V:4
 x6 | x6 | x6 | x6 | x3[K:treble] x3 | x2[K:bass] x4 | x6 | D,3 z3 | x6 | .B,,3 z3 | %10
 [B,,B,]3[K:treble][K:bass] .[B,,B,]3 | x6 | x3[K:treble] x3 | x2[K:bass] x4 | x6 | x6 |] %16

